resources/svg/flag-alt-o.svg

<svg xmlns="http://www.w3.org/2000/svg" viewBox="0 0 15 15" fill="none"><path d="M12.5 6.5L12.7236 6.94721C12.8868 6.8656 12.9926 6.70154 12.9996 6.51919C13.0066 6.33683 12.9137 6.16514 12.7572 6.07125L12.5 6.5ZM2.5 0.5L2.75725 0.0712535C2.60278 -0.0214257 2.4104 -0.0238528 2.25365 0.0649C2.0969 0.153653 2 0.319864 2 0.5L2.5 0.5ZM12.7572 6.07125L2.75725 0.0712535L2.24275 0.928746L12.2428 6.92875L12.7572 6.07125ZM2 0.5V11.5H3V0.5H2ZM2.72361 11.9472L12.7236 6.94721L12.2764 6.05279L2.27639 11.0528L2.72361 11.9472ZM3 15V11.5H2V15H3Z" fill="black"/></svg>

<svg xmlns="http://www.w3.org/2000/svg" viewBox="0 0 15 15" fill="none"><path d="M12.5 6.5l.224.447a.5.5 0 00.033-.876L12.5 6.5zm-10-6l.257-.429A.5.5 0 002 .5h.5zm10.257 5.571l-10-6-.514.858 10 6 .514-.858zM2 .5v11h1V.5H2zm.724 11.447l10-5-.448-.894-10 5 .448.894zM3 15v-3.5H2V15h1z" fill="currentColor"/></svg>
